icons/mail-volume-fill.svg

<svg xmlns="http://www.w3.org/2000/svg" width="24" height="24" fill="none"><g clip-path="url(#a)"><g><path fill="#121212" d="M20 14.5V23.5L16.667 21H14V17H16.667L20 14.5ZM21 3C21.2652 3 21.5196 3.10536 21.7071 3.29289C21.8946 3.48043 22 3.73478 22 4V14.529C21.0073 13.6395 19.7465 13.1058 18.4169 13.0123C17.0872 12.9188 15.7642 13.2708 14.6567 14.0126C13.5493 14.7545 12.7204 15.844 12.3009 17.1093C11.8814 18.3745 11.8951 19.7434 12.34 21H3.002C2.73678 21 2.48243 20.8946 2.29489 20.7071C2.10736 20.5196 2.002 20.2652 2.002 20V4C2.002 3.73478 2.10736 3.48043 2.29489 3.29289C2.48243 3.10536 2.73678 3 3.002 3H21.002H21ZM21 17C21.519 16.9977 22.0185 17.1972 22.3932 17.5564C22.7678 17.9156 22.9881 18.4063 23.0075 18.9249C23.027 19.4436 22.8441 19.9494 22.4975 20.3357C22.1509 20.722 21.6677 20.9584 21.15 20.995L21 21V17ZM5.647 6.238L4.353 7.762L12.073 14.317L19.654 7.757L18.346 6.244L12.06 11.682L5.647 6.238Z"/></g></g><defs><clipPath id="a"><rect width="24" height="24" fill="white"/></clipPath></defs></svg>

<svg width="24" height="24" fill="none" xmlns="http://www.w3.org/2000/svg"><g clip-path="url(#a)"><path d="M20 14.5v9L16.667 21H14v-4h2.667L20 14.5ZM21 3a1 1 0 0 1 1 1v10.529A6 6 0 0 0 12.34 21H3.002a1 1 0 0 1-1-1V4a1 1 0 0 1 1-1h18H21Zm0 14a2 2 0 0 1 .15 3.995L21 21v-4ZM5.647 6.238 4.353 7.762l7.72 6.555 7.581-6.56-1.308-1.513-6.286 5.438-6.413-5.444Z" /></g><defs><clipPath id="a"><path fill="#fff" d="M0 0h24v24H0z"/></clipPath></defs></svg>
